X:70
T:The Dolly Varden
B:Terry "Cuz" Teahan "Sliabh Luachra on Parade" 1980
Z:Patrick Cavanagh
M:4/4
L:1/8
R:Barndance
K:A
A>B | c2cB c2 c2 | ecBA F2EF | A2AF A2AB | c2 e2 e2 f2 | 
ceec e2 c2 | BcBA F2EF | A2AB c2ec | B/c/B A2 A2 :| 
z2 |: e2 ec e2 cB | ABcB ABce | f2fa f2af | e2ec B/c/B AB | 
ceec e2 c2 | BcBA F2EF | A2AB c2ec | B/c/B A2 A4 :|| 

